SF_Symbols/newspaper.fill.svg

<?xml version="1.0" encoding="UTF-8"?>
<svg xmlns="http://www.w3.org/2000/svg" xmlns:xlink="http://www.w3.org/1999/xlink" width="24" height="24" viewBox="0 0 24 24" version="1.1">
<g id="surface1">
<path style=" stroke:none;fill-rule:nonzero;fill:rgb(100%,100%,100%);fill-opacity:1;" d="M 0.363281 11.46875 L 0.363281 20.769531 C 0.363281 21.019531 0.421875 21.238281 0.53125 21.425781 C 0.640625 21.613281 0.796875 21.761719 0.988281 21.863281 C 1.183594 21.96875 1.402344 22.019531 1.644531 22.019531 C 1.890625 22.015625 2.109375 21.957031 2.300781 21.855469 C 2.496094 21.757812 2.648438 21.613281 2.761719 21.425781 C 2.871094 21.238281 2.925781 21.019531 2.925781 20.769531 L 2.925781 9.511719 L 2.417969 9.511719 C 1.992188 9.511719 1.628906 9.585938 1.324219 9.738281 C 1.015625 9.890625 0.78125 10.117188 0.613281 10.417969 C 0.449219 10.707031 0.363281 11.058594 0.363281 11.46875 Z M 3.886719 23.644531 L 20.363281 23.644531 C 21.453125 23.644531 22.269531 23.375 22.8125 22.832031 C 23.359375 22.296875 23.636719 21.496094 23.636719 20.425781 L 23.636719 4.542969 C 23.636719 3.464844 23.359375 2.660156 22.8125 2.125 C 22.269531 1.582031 21.453125 1.3125 20.363281 1.3125 L 8.230469 1.3125 C 7.140625 1.3125 6.320312 1.582031 5.769531 2.125 C 5.230469 2.660156 4.957031 3.464844 4.957031 4.542969 L 4.957031 21.457031 C 4.957031 22.019531 4.882812 22.46875 4.730469 22.800781 C 4.578125 23.140625 4.296875 23.421875 3.886719 23.644531 Z M 9.136719 7.519531 C 8.949219 7.519531 8.792969 7.457031 8.667969 7.332031 C 8.542969 7.203125 8.480469 7.046875 8.480469 6.863281 C 8.480469 6.691406 8.542969 6.546875 8.667969 6.425781 C 8.792969 6.300781 8.949219 6.238281 9.136719 6.238281 L 19.480469 6.238281 C 19.660156 6.238281 19.8125 6.300781 19.9375 6.425781 C 20.0625 6.546875 20.125 6.691406 20.125 6.863281 C 20.125 7.046875 20.0625 7.203125 19.9375 7.332031 C 19.8125 7.457031 19.660156 7.519531 19.480469 7.519531 Z M 9.136719 11.1875 C 8.949219 11.1875 8.792969 11.128906 8.667969 11.011719 C 8.542969 10.886719 8.480469 10.734375 8.480469 10.550781 C 8.480469 10.371094 8.542969 10.21875 8.667969 10.09375 C 8.792969 9.96875 8.949219 9.90625 9.136719 9.90625 L 19.480469 9.90625 C 19.660156 9.90625 19.8125 9.96875 19.9375 10.09375 C 20.0625 10.21875 20.125 10.371094 20.125 10.550781 C 20.125 10.734375 20.0625 10.886719 19.9375 11.011719 C 19.8125 11.128906 19.660156 11.1875 19.480469 11.1875 Z M 15.59375 14.863281 C 15.40625 14.863281 15.25 14.804688 15.125 14.6875 C 15.007812 14.5625 14.949219 14.414062 14.949219 14.238281 C 14.949219 14.050781 15.007812 13.894531 15.125 13.769531 C 15.25 13.644531 15.40625 13.582031 15.59375 13.582031 L 19.480469 13.582031 C 19.660156 13.582031 19.808594 13.644531 19.925781 13.769531 C 20.050781 13.894531 20.113281 14.050781 20.113281 14.238281 C 20.113281 14.414062 20.050781 14.5625 19.925781 14.6875 C 19.808594 14.804688 19.660156 14.863281 19.480469 14.863281 Z M 15.59375 18.613281 C 15.40625 18.613281 15.25 18.554688 15.125 18.4375 C 15.007812 18.3125 14.949219 18.164062 14.949219 17.988281 C 14.949219 17.800781 15.007812 17.644531 15.125 17.519531 C 15.25 17.394531 15.40625 17.332031 15.59375 17.332031 L 19.480469 17.332031 C 19.660156 17.332031 19.808594 17.394531 19.925781 17.519531 C 20.050781 17.644531 20.113281 17.800781 20.113281 17.988281 C 20.113281 18.164062 20.050781 18.3125 19.925781 18.4375 C 19.808594 18.554688 19.660156 18.613281 19.480469 18.613281 Z M 9.699219 18.667969 C 9.308594 18.667969 9.007812 18.558594 8.792969 18.34375 C 8.578125 18.128906 8.46875 17.828125 8.46875 17.449219 L 8.46875 14.8125 C 8.46875 14.429688 8.578125 14.132812 8.792969 13.917969 C 9.007812 13.695312 9.308594 13.582031 9.699219 13.582031 L 12.300781 13.582031 C 12.683594 13.582031 12.984375 13.695312 13.199219 13.917969 C 13.414062 14.132812 13.519531 14.429688 13.519531 14.8125 L 13.519531 17.449219 C 13.519531 17.828125 13.414062 18.128906 13.199219 18.34375 C 12.984375 18.558594 12.683594 18.667969 12.300781 18.667969 Z M 9.699219 18.667969 "/>
</g>
</svg>

<svg xmlns="http://www.w3.org/2000/svg" width="24" height="24"><path style="stroke:none;fill-rule:nonzero;fill:#fff;fill-opacity:1" d="M.363 11.469v9.3c0 .25.059.47.168.657.11.187.266.336.457.437.414.211.903.207 1.313-.008.191-.097.351-.246.46-.43.11-.187.165-.405.165-.655V9.512h-.508c-.426 0-.79.074-1.094.226-.3.149-.55.387-.71.68-.165.289-.25.64-.25 1.05Zm3.524 12.176h16.476c1.09 0 1.907-.27 2.45-.813.546-.535.824-1.336.824-2.406V4.543c0-1.078-.278-1.883-.825-2.418-.542-.543-1.359-.813-2.449-.813H8.23c-1.09 0-1.91.27-2.46.813-.54.535-.813 1.34-.813 2.418v16.914c0 .563-.074 1.012-.227 1.344-.152.34-.433.62-.843.844ZM9.137 7.52a.64.64 0 0 1-.657-.657c0-.172.063-.316.188-.437a.64.64 0 0 1 .469-.188H19.48c.18 0 .332.063.457.188a.585.585 0 0 1 .188.437c0 .184-.063.34-.188.469a.613.613 0 0 1-.457.188Zm0 3.668a.674.674 0 0 1-.469-.176.622.622 0 0 1-.188-.461.64.64 0 0 1 .656-.645H19.48c.18 0 .332.063.457.188a.628.628 0 0 1 .188.457.622.622 0 0 1-.645.636Zm6.457 3.675a.674.674 0 0 1-.469-.175.622.622 0 0 1-.176-.45c0-.187.059-.343.176-.468a.64.64 0 0 1 .469-.188h3.886c.18 0 .329.063.446.188a.64.64 0 0 1 .187.468.61.61 0 0 1-.187.45.613.613 0 0 1-.446.175Zm0 3.75a.674.674 0 0 1-.469-.175.622.622 0 0 1-.176-.45c0-.187.059-.343.176-.468a.64.64 0 0 1 .469-.188h3.886c.18 0 .329.063.446.188a.64.64 0 0 1 .187.468.61.61 0 0 1-.187.45.613.613 0 0 1-.446.175Zm-5.895.055c-.39 0-.691-.11-.906-.324-.215-.215-.324-.516-.324-.895v-2.637c0-.382.11-.68.324-.894.215-.223.516-.336.906-.336h2.602c.383 0 .683.113.898.336.215.215.32.512.32.895v2.636c0 .38-.105.68-.32.895-.215.215-.515.324-.898.324Zm0 0"/></svg>
